packages/core/src/svgs/ht.svg

<svg width="24" height="24" viewBox="0 0 24 24" fill="none" xmlns="http://www.w3.org/2000/svg">
<g clip-path="url(#clip0_31_11599)">
<path d="M0 0H24V24H0V0Z" fill="url(#paint0_linear_31_11599)"/>
<path d="M13.7143 8.44094C13.7143 6.10266 12.5945 4.0918 11.7429 3.43694C11.739 3.4348 11.6773 3.39966 11.6829 3.49309L11.6812 3.49609C11.6105 8.01066 9.34291 9.23466 8.09619 10.8829C5.21919 14.6865 7.89476 18.8569 10.6196 19.6279C12.144 20.0591 10.2673 18.8651 10.0256 16.3421C9.73333 13.2928 13.7143 10.9652 13.7143 8.44094Z" fill="#E6EEFA"/>
<path d="M15.2005 9.86808C15.1833 9.85608 15.1585 9.84751 15.1413 9.87665C15.0946 10.4514 14.5263 11.6809 13.8063 12.8098C11.3635 16.6386 12.7555 18.4845 13.5385 19.4758C13.9927 20.0514 13.5385 19.4758 14.6742 18.8878C14.7633 18.8415 16.8907 17.6089 17.1213 14.8005C17.3442 12.0808 15.7632 10.3661 15.2005 9.86808Z" fill="#2EA7DF"/>
</g>
<defs>
<linearGradient id="paint0_linear_31_11599" x1="4.46486" y1="4.16229" x2="29.2059" y2="32.5787" gradientUnits="userSpaceOnUse">
<stop stop-color="#1A1E21"/>
<stop offset="1" stop-color="#06060A"/>
</linearGradient>
<clipPath id="clip0_31_11599">
<rect width="24" height="24" fill="white"/>
</clipPath>
</defs>
</svg>

<svg xmlns="http://www.w3.org/2000/svg" width="24" height="24" fill="none" viewBox="0 0 24 24"><g clip-path="url(#a)"><path fill="url(#b)" d="M0 0h24v24H0z"/><path fill="#E6EEFA" d="M13.714 8.44c0-2.337-1.12-4.348-1.971-5.003-.004-.002-.066-.037-.06.056l-.002.003c-.07 4.515-2.338 5.739-3.585 7.387-2.877 3.804-.201 7.974 2.524 8.745 1.524.431-.353-.763-.594-3.286-.293-3.05 3.688-5.377 3.688-7.901"/><path fill="#2EA7DF" d="M15.2 9.868c-.017-.012-.041-.02-.059.009-.046.574-.615 1.804-1.335 2.933-2.442 3.829-1.05 5.675-.267 6.666.454.575 0 0 1.135-.588.09-.047 2.217-1.28 2.447-4.088.223-2.72-1.358-4.434-1.92-4.932"/></g><defs><linearGradient id="b" x1="4.465" x2="29.206" y1="4.162" y2="32.579" gradientUnits="userSpaceOnUse"><stop stop-color="#1A1E21"/><stop offset="1" stop-color="#06060A"/></linearGradient><clipPath id="a"><path fill="#fff" d="M0 0h24v24H0z"/></clipPath></defs></svg>
